svgs/sharp-solid/hand-holding-heart.svg

<svg xmlns="http://www.w3.org/2000/svg" viewBox="0 0 576 512"><!--! Font Awesome Pro 6.6.0 by @fontawesome - https://fontawesome.com License - https://fontawesome.com/license (Commercial License) Copyright 2024 Fonticons, Inc. --><path d="M167.2 135.2L192 160l96 96 96-96 24.8-24.8c14.9-14.9 23.2-35 23.2-56l0-3.6C432 33.9 398.1 0 356.4 0c-23 0-44.7 10.4-59.1 28.4L288 40l-9.3-11.6C264.4 10.4 242.6 0 219.6 0C177.9 0 144 33.9 144 75.6l0 3.6c0 21 8.3 41.1 23.2 56zM140 327.1l-71.2 57L0 384.1l0 128 32 0 192 0 160 0 12.4 0 10.2-7 128-88 33-22.7-45.3-65.9-33 22.7-94.5 65-138.8 0 0-32 32 0 64 0 32 0 0-64-32 0-64 0-64 0-64 0-11.2 0-8.8 7z"/></svg>

<svg xmlns="http://www.w3.org/2000/svg" viewBox="0 0 576 512"><!--! Font Awesome Pro 6.4.2 by @fontawesome - https://fontawesome.com License - https://fontawesome.com/license (Commercial License) Copyright 2023 Fonticons, Inc. --><path d="M167.2 135.2L192 160l96 96 96-96 24.8-24.8c14.9-14.9 23.2-35 23.2-56V75.6C432 33.9 398.1 0 356.4 0c-23 0-44.7 10.4-59.1 28.4L288 40l-9.3-11.6C264.4 10.4 242.6 0 219.6 0C177.9 0 144 33.9 144 75.6v3.6c0 21 8.3 41.1 23.2 56zM140 327.1l-71.2 57H0v128H32 224 384h12.4l10.2-7 128-88 33-22.7-45.3-65.9-33 22.7-94.5 65H256v-32h32 64 32v-64H352 288 224 160 148.8l-8.8 7z"/></svg>
